tools/download-figma-icons/icons/action/forward.svg

<svg width="24" height="24" viewBox="0 0 24 24" fill="none" xmlns="http://www.w3.org/2000/svg">
<path fill-rule="evenodd" clip-rule="evenodd" d="M12.75 6.75006V7.61631L12.7065 7.62143C7.42659 8.19889 3.45097 10.8334 1.01095 15.4484C-0.0743805 17.5012 2.2833 19.6529 4.22862 18.385L4.52967 18.1935C6.85153 16.7528 9.492 15.9396 12.4819 15.7593L12.75 15.7456V16.5001C12.75 18.4332 15.0269 19.4663 16.4817 18.1934L22.4817 12.9434C23.5579 12.0017 23.4941 10.3081 22.3501 9.45006L16.3501 4.95006C14.8668 3.8376 12.75 4.89595 12.75 6.75006ZM15 6.75005L21 11.2501L15 16.5001V13.5001C10.4025 13.2824 6.40248 14.2824 3.00005 16.5001C5.37926 12.0001 9.37926 9.75005 15 9.75005V6.75005Z" fill="black"/>
</svg>

<svg width="24" height="24" viewBox="0 0 24 24" fill="none" xmlns="http://www.w3.org/2000/svg"><path fill-rule="evenodd" clip-rule="evenodd" d="M12.75 6.75v.866l-.043.005C7.426 8.2 3.45 10.833 1.01 15.448c-1.085 2.053 1.272 4.205 3.218 2.937l.3-.192c2.323-1.44 4.963-2.253 7.953-2.434l.268-.013v.754c0 1.933 2.277 2.966 3.732 1.693l6-5.25a2.25 2.25 0 0 0-.132-3.493l-6-4.5c-1.483-1.112-3.6-.054-3.6 1.8Zm2.25 0 6 4.5-6 5.25v-3c-4.598-.218-8.598.782-12 3C5.38 12 9.38 9.75 15 9.75v-3Z" fill="currentColor"/></svg>
